assets/img/Sysdig-Falco-Quote-product-icon-grey.svg

<?xml version="1.0" encoding="UTF-8" standalone="no"?>
<svg
   xmlns:dc="http://purl.org/dc/elements/1.1/"
   xmlns:cc="http://creativecommons.org/ns#"
   xmlns:rdf="http://www.w3.org/1999/02/22-rdf-syntax-ns#"
   xmlns:svg="http://www.w3.org/2000/svg"
   xmlns="http://www.w3.org/2000/svg"
   viewBox="0 0 400 400"
   height="400"
   width="400"
   xml:space="preserve"
   id="svg2"
   version="1.1"><metadata
     id="metadata8"><rdf:RDF><cc:Work
         rdf:about=""><dc:format>image/svg+xml</dc:format><dc:type
           rdf:resource="http://purl.org/dc/dcmitype/StillImage" /></cc:Work></rdf:RDF></metadata><defs
     id="defs6"><clipPath
       id="clipPath18"
       clipPathUnits="userSpaceOnUse"><path
         id="path16"
         d="M 0,300 H 300 V 0 H 0 Z" /></clipPath><clipPath
       id="clipPath26"
       clipPathUnits="userSpaceOnUse"><path
         id="path24"
         d="M 0.946335,298.837 H 299.054 V 0.730057 H 0.946335 Z" /></clipPath></defs><g
     transform="matrix(1.3333333,0,0,-1.3333333,0,400)"
     id="g10"><g
       id="g12"><g
         clip-path="url(#clipPath18)"
         id="g14"><g
           id="g20"><g
             id="g22" /><g
             id="g34"><g
               style="opacity:0.60000598"
               id="g32"
               clip-path="url(#clipPath26)"><g
                 id="g30"
                 transform="translate(218.7219,40.7807)"><path
                   id="path28"
                   style="fill:#999999;fill-opacity:1;fill-rule:nonzero;stroke:none"
                   d="m 0,0 c 1.773,7.6 3.466,14.9 5.183,22.194 0.623,2.649 1.307,5.284 1.954,7.928 4.047,16.523 6.249,18.237 23.833,18.539 C 32.916,28.129 17.164,2.744 0,0 m -24.687,13.162 c 5.24,19.361 13.535,27.917 28.594,29.083 C 1.151,27.149 -12.75,13.198 -24.687,13.162 m -16.962,31.357 c -15.166,4.388 -29.371,10.864 -43.681,19.963 2.16,0.456 3.177,0.821 4.207,0.866 38.08,1.672 76.159,3.345 114.242,4.944 C 43.929,70.746 45.681,69.415 49.62,58.304 37.453,55.671 25.357,53.028 13.25,50.442 3.184,48.292 -6.987,46.56 -16.943,43.988 c -8.41,-2.174 -16.533,-1.833 -24.706,0.531 m -59.653,68.674 C -60.969,107.912 -20.689,102.178 19.716,97.519 32.602,96.033 36.29,87.156 41.219,77.38 34.466,77.02 28.327,76.613 22.182,76.381 -0.981,75.508 -24.154,74.857 -47.307,73.775 c -9.409,-0.44 -18.154,1.332 -26.563,5.356 -18.94,9.062 -35.538,21.423 -50.576,36.834 7.716,-0.92 15.441,-1.763 23.144,-2.772 m -67.941,60.118 c 0.299,0.32 0.597,0.639 0.896,0.959 28.918,-7.599 57.837,-15.197 86.755,-22.799 27.441,-7.213 54.754,-14.978 82.373,-21.425 14.742,-3.442 21.098,-13.711 26.961,-26.636 -15.979,2.031 -31.184,3.951 -46.386,5.897 -22.959,2.94 -45.935,5.756 -68.858,8.953 -5.305,0.74 -10.824,2.014 -15.563,4.397 -22.77,11.448 -43.021,26.489 -61.035,44.515 -1.879,1.882 -3.436,4.085 -5.143,6.139 M 36.697,45.488 c 0.068,3.421 0.538,6.579 4.543,6.872 4.418,0.322 9.494,4.359 13.113,-1.743 2.579,-4.348 5.185,-8.681 7.784,-13.019 11.595,21.205 18.195,45.533 18.195,71.405 0,82.32 -66.734,149.054 -149.054,149.054 -82.32,0 -149.054,-66.734 -149.054,-149.054 0,-82.32 66.734,-149.054 149.054,-149.054 40.648,0 77.477,16.291 104.366,42.674 0.01,1.443 -0.002,2.887 0.029,4.33 0.283,12.846 0.768,25.688 1.024,38.535" /></g></g></g></g></g></g></g></svg>

<?xml version="1.0" encoding="utf-8"?>
<!-- Generator: Adobe Illustrator 19.2.1, SVG Export Plug-In . SVG Version: 6.00 Build 0)  -->
<svg version="1.1"
	 id="svg2" xmlns:cc="http://creativecommons.org/ns#" xmlns:dc="http://purl.org/dc/elements/1.1/" xmlns:rdf="http://www.w3.org/1999/02/22-rdf-syntax-ns#" xmlns:svg="http://www.w3.org/2000/svg"
	 xmlns="http://www.w3.org/2000/svg" xmlns:xlink="http://www.w3.org/1999/xlink" x="0px" y="0px" viewBox="0 0 400 400"
	 style="enable-background:new 0 0 400 400;" xml:space="preserve">
<style type="text/css">
	.st0{clip-path:url(#SVGID_2_);}
	.st1{opacity:0.6;clip-path:url(#SVGID_4_);}
	.st2{fill:#777777;}
</style>
<g>
	<g>
		<g id="g10" transform="matrix(1.3333333,0,0,-1.3333333,0,400)">
			<defs>
				<rect id="SVGID_1_" x="-50" y="-50" width="400" height="400"/>
			</defs>
			<clipPath id="SVGID_2_">
				<use xlink:href="#SVGID_1_"  style="overflow:visible;"/>
			</clipPath>
			<g id="g12" class="st0">
				<g id="g14">
					<g id="g22">
					</g>
					<g id="g20">
						<g id="g34">
							<defs>
								<rect id="SVGID_3_" x="-48.7" y="-49" width="397.5" height="397.5"/>
							</defs>
							<clipPath id="SVGID_4_">
								<use xlink:href="#SVGID_3_"  style="overflow:visible;"/>
							</clipPath>
							<g id="g32" class="st1">
								<g id="g30" transform="translate(218.7219,40.7807)">
									<path id="path28" class="st2" d="M0,0c1.8,7.6,3.5,14.9,5.2,22.2c0.6,2.6,1.3,5.3,2,7.9c4,16.5,6.2,18.2,23.8,18.5
										C32.9,28.1,17.2,2.7,0,0 M-24.7,13.2c5.2,19.4,13.5,27.9,28.6,29.1C1.2,27.1-12.7,13.2-24.7,13.2 M-41.6,44.5
										c-15.2,4.4-29.4,10.9-43.7,20c2.2,0.5,3.2,0.8,4.2,0.9C-43,67-5,68.7,33.1,70.3c10.8,0.5,12.6-0.9,16.5-12
										c-12.2-2.6-24.3-5.3-36.4-7.9C3.2,48.3-7,46.6-16.9,44C-25.4,41.8-33.5,42.2-41.6,44.5 M-101.3,113.2
										c40.3-5.3,80.6-11,121-15.7C32.6,96,36.3,87.2,41.2,77.4c-6.8-0.4-12.9-0.8-19-1c-23.2-0.9-46.3-1.5-69.5-2.6
										c-9.4-0.4-18.2,1.3-26.6,5.4c-18.9,9.1-35.5,21.4-50.6,36.8C-116.7,115-109,114.2-101.3,113.2 M-169.2,173.3
										c0.3,0.3,0.6,0.6,0.9,1c28.9-7.6,57.8-15.2,86.8-22.8c27.4-7.2,54.8-15,82.4-21.4c14.7-3.4,21.1-13.7,27-26.6
										c-16,2-31.2,4-46.4,5.9c-23,2.9-45.9,5.8-68.9,9c-5.3,0.7-10.8,2-15.6,4.4c-22.8,11.4-43,26.5-61,44.5
										C-166,169.1-167.5,171.3-169.2,173.3 M36.7,45.5c0.1,3.4,0.5,6.6,4.5,6.9c4.4,0.3,9.5,4.4,13.1-1.7c2.6-4.3,5.2-8.7,7.8-13
										C73.7,58.8,80.3,83.1,80.3,109c0,82.3-66.7,149.1-149.1,149.1S-217.8,191.3-217.8,109S-151-40.1-68.7-40.1
										c40.6,0,77.5,16.3,104.4,42.7c0,1.4,0,2.9,0,4.3C36,19.8,36.4,32.6,36.7,45.5"/>
								</g>
							</g>
						</g>
					</g>
				</g>
			</g>
		</g>
	</g>
</g>
</svg>
